humanity-icon-theme/Humanity/apps/32/preferences-desktop-accessibility.svg

<?xml version="1.0" encoding="UTF-8" standalone="no"?>
<!-- Created with Inkscape (http://www.inkscape.org/) -->
<svg
   xmlns:svg="http://www.w3.org/2000/svg"
   xmlns="http://www.w3.org/2000/svg"
   xmlns:xlink="http://www.w3.org/1999/xlink"
   version="1.0"
   width="32"
   height="32"
   id="svg2522">
  <defs
     id="defs2524">
    <linearGradient
       id="linearGradient8838">
      <stop
         id="stop8840"
         style="stop-color:#000000;stop-opacity:1"
         offset="0" />
      <stop
         id="stop8842"
         style="stop-color:#000000;stop-opacity:0"
         offset="1" />
    </linearGradient>
    <radialGradient
       cx="62.625"
       cy="4.625"
       r="10.625"
       fx="62.625"
       fy="4.625"
       id="radialGradient2502"
       xlink:href="#linearGradient8838"
       gradientUnits="userSpaceOnUse"
       gradientTransform="matrix(1.5058824,0,0,0.37647,-78.305888,26.258824)" />
    <linearGradient
       id="linearGradient2490-182-124">
      <stop
         id="stop2788"
         style="stop-color:#1f4b6a;stop-opacity:1"
         offset="0" />
      <stop
         id="stop2790"
         style="stop-color:#4083c2;stop-opacity:1"
         offset="1" />
    </linearGradient>
    <linearGradient
       x1="18.379412"
       y1="44.980297"
       x2="18.379412"
       y2="3.0816143"
       id="linearGradient2499"
       xlink:href="#linearGradient2490-182-124"
       gradientUnits="userSpaceOnUse"
       gradientTransform="matrix(0.7126612,0,0,0.7126613,-1.1038706,-1.1038704)" />
    <linearGradient
       id="linearGradient3242-187-536">
      <stop
         id="stop2778"
         style="stop-color:#8badea;stop-opacity:1"
         offset="0" />
      <stop
         id="stop2780"
         style="stop-color:#6396cd;stop-opacity:1"
         offset="0.26238" />
      <stop
         id="stop2782"
         style="stop-color:#3b7caf;stop-opacity:1"
         offset="0.66093999" />
      <stop
         id="stop2784"
         style="stop-color:#194c70;stop-opacity:1"
         offset="1" />
    </linearGradient>
    <radialGradient
       cx="23.895569"
       cy="3.9900031"
       r="20.397499"
       fx="23.895569"
       fy="3.9900031"
       id="radialGradient2497"
       xlink:href="#linearGradient3242-187-536"
       gradientUnits="userSpaceOnUse"
       gradientTransform="matrix(0,1.7008781,-2.245129,0,24.958071,-40.236051)" />
    <linearGradient
       id="linearGradient4873">
      <stop
         id="stop4875"
         style="stop-color:#ffffff;stop-opacity:1"
         offset="0" />
      <stop
         id="stop4877"
         style="stop-color:#ffffff;stop-opacity:0"
         offset="1" />
    </linearGradient>
    <linearGradient
       x1="63.397362"
       y1="-12.489107"
       x2="63.397362"
       y2="5.4675598"
       id="linearGradient2494"
       xlink:href="#linearGradient4873"
       gradientUnits="userSpaceOnUse"
       gradientTransform="matrix(1.5436509,0,0,1.5436158,-80.015712,21.419381)" />
  </defs>
  <g
     id="layer1">
    <path
       d="M 31.999998,28 C 31.999998,30.209139 24.836553,32 15.999997,32 C 7.1634417,32 -3.2e-06,30.209139 -3.2e-06,28 C -3.2e-06,25.790861 7.1634417,24 15.999997,24 C 24.836553,24 31.999998,25.790861 31.999998,28 L 31.999998,28 z"
       id="path8836"
       style="opacity:0.3;fill:url(#radialGradient2502);fill-opacity:1;fill-rule:evenodd;stroke:none;stroke-width:0.99999988;stroke-linecap:butt;stroke-linejoin:round;marker:none;marker-start:none;marker-mid:none;marker-end:none;stroke-miterlimit:4;stroke-dasharray:none;stroke-dashoffset:0;stroke-opacity:1;visibility:visible;display:inline;overflow:visible" />
    <path
       d="M 16.000001,1.5017975 C 8.0003938,1.5017975 1.5017978,8.0003912 1.5017978,15.999999 C 1.5017978,23.999608 8.0003938,30.498205 16.000001,30.498202 C 23.999606,30.498202 30.49821,23.999608 30.498202,15.999999 C 30.498202,8.0003912 23.999606,1.5017975 16.000001,1.5017975 z"
       id="path2555"
       style="fill:url(#radialGradient2497);fill-opacity:1;stroke:url(#linearGradient2499);stroke-width:1.00365412;stroke-linecap:round;stroke-linejoin:round;stroke-miterlimit:4;stroke-dasharray:none;stroke-dashoffset:0;stroke-opacity:1" />
    <path
       d="M 29.5,15.999522 C 29.5,23.455607 23.455399,29.5 16.000172,29.5 C 8.5442598,29.5 2.5,23.455539 2.5,15.999522 C 2.5,8.5437822 8.5442598,2.5000011 16.000172,2.5000011 C 23.455399,2.5000011 29.5,8.5437822 29.5,15.999522 L 29.5,15.999522 z"
       id="path8655"
       style="opacity:0.4;fill:none;fill-opacity:1;fill-rule:nonzero;stroke:url(#linearGradient2494);stroke-width:1;stroke-miterlimit:4;stroke-dasharray:none;stroke-opacity:1" />
    <path
       d="M 18.299799,8.1756486 C 18.299799,9.3766078 17.316035,10.351299 16.103898,10.351299 C 14.891759,10.351299 13.907996,9.3766078 13.907996,8.1756486 C 13.907996,6.9746909 14.891759,5.9999997 16.103898,5.9999997 C 17.316035,5.9999997 18.299799,6.9746909 18.299799,8.1756486 z M 23.780465,10.489071 C 23.678901,10.505375 23.582932,10.545064 23.50068,10.604851 L 15.999771,11.763753 L 8.5392604,10.588868 C 8.3464065,10.450283 8.0752623,10.408784 7.8597702,10.511673 C 7.6442771,10.614562 7.5030077,10.858427 7.5000365,11.090481 C 7.4973158,11.322567 7.646957,11.522717 7.8597702,11.630709 L 13.705808,13.468134 L 13.665824,17.686241 L 11.602993,24.003606 C 11.404317,24.291273 11.464871,24.660718 11.762875,24.852499 C 12.060892,25.044308 12.483506,24.985866 12.682202,24.698167 L 16.011195,17.879188 L 19.277349,24.686382 C 19.453959,24.984755 19.847645,25.088403 20.156699,24.917911 C 20.465753,24.747422 20.573126,24.367363 20.396522,24.068988 L 18.371982,17.724445 L 18.292054,13.753383 L 24.22012,11.608108 C 24.459637,11.445958 24.563691,11.138982 24.459951,10.874963 C 24.356202,10.610915 24.071092,10.457077 23.780445,10.489071 L 23.780465,10.489071 z"
       id="path2520"
       style="fill:#1f4b6b;fill-opacity:1;stroke:none" />
    <path
       d="M 18.299799,9.1756488 C 18.299799,10.376608 17.316035,11.351299 16.103898,11.351299 C 14.891759,11.351299 13.907996,10.376608 13.907996,9.1756488 C 13.907996,7.9746911 14.891759,6.9999999 16.103898,6.9999999 C 17.316035,6.9999999 18.299799,7.9746911 18.299799,9.1756488 z M 23.780465,11.489071 C 23.678901,11.505375 23.582932,11.545064 23.50068,11.604851 L 15.999771,12.763753 L 8.5392604,11.588868 C 8.3464065,11.450283 8.0752623,11.408784 7.8597702,11.511673 C 7.6442771,11.614562 7.5030077,11.858427 7.5000365,12.090481 C 7.4973158,12.322567 7.646957,12.522717 7.8597702,12.630709 L 13.705808,14.468134 L 13.665824,18.686241 L 11.602993,25.003606 C 11.404317,25.291273 11.464871,25.660718 11.762875,25.852499 C 12.060892,26.044308 12.483506,25.985866 12.682202,25.698167 L 16.011195,18.879188 L 19.277349,25.686382 C 19.453959,25.984755 19.847645,26.088403 20.156699,25.917911 C 20.465753,25.747422 20.573126,25.367363 20.396522,25.068988 L 18.371982,18.724445 L 18.292054,14.753383 L 24.22012,12.608108 C 24.459637,12.445958 24.563691,12.138982 24.459951,11.874963 C 24.356202,11.610915 24.071092,11.457077 23.780445,11.489071 L 23.780465,11.489071 z"
       id="path6668"
       style="fill:#ffffff;fill-opacity:1;stroke:none" />
  </g>
</svg>

<?xml version="1.0" encoding="UTF-8" standalone="no"?>
<!-- Created with Inkscape (http://www.inkscape.org/) -->
<svg id="svg2522" xmlns="http://www.w3.org/2000/svg" height="32" width="32" version="1.0" xmlns:xlink="http://www.w3.org/1999/xlink">
 <defs id="defs2524">
  <radialGradient id="radialGradient2502" gradientUnits="userSpaceOnUse" cy="4.625" cx="62.625" gradientTransform="matrix(1.5059 0 0 .37647 -78.306 26.259)" r="10.625">
   <stop id="stop8840" offset="0"/>
   <stop id="stop8842" style="stop-opacity:0" offset="1"/>
  </radialGradient>
  <linearGradient id="linearGradient2499" y2="3.0816" gradientUnits="userSpaceOnUse" x2="18.379" gradientTransform="matrix(.71266 0 0 .71266 -1.1039 -1.1039)" y1="44.98" x1="18.379">
   <stop id="stop2788" style="stop-color:#1f4b6a" offset="0"/>
   <stop id="stop2790" style="stop-color:#4083c2" offset="1"/>
  </linearGradient>
  <radialGradient id="radialGradient2497" gradientUnits="userSpaceOnUse" cy="3.99" cx="23.896" gradientTransform="matrix(0 1.7009 -2.2451 0 24.958 -40.236)" r="20.397">
   <stop id="stop2778" style="stop-color:#8badea" offset="0"/>
   <stop id="stop2780" style="stop-color:#6396cd" offset=".26238"/>
   <stop id="stop2782" style="stop-color:#3b7caf" offset=".66094"/>
   <stop id="stop2784" style="stop-color:#194c70" offset="1"/>
  </radialGradient>
  <linearGradient id="linearGradient2494" y2="5.4676" gradientUnits="userSpaceOnUse" x2="63.397" gradientTransform="matrix(1.5437 0 0 1.5436 -80.016 21.419)" y1="-12.489" x1="63.397">
   <stop id="stop4875" style="stop-color:#fff" offset="0"/>
   <stop id="stop4877" style="stop-color:#fff;stop-opacity:0" offset="1"/>
  </linearGradient>
 </defs>
 <g id="layer1">
  <path id="path8836" style="opacity:.3;fill-rule:evenodd;fill:url(#radialGradient2502)" d="m32 28c0 2.209-7.163 4-16 4-8.8366 0-16-1.791-16-4-0.0000032-2.209 7.1634-4 16-4 8.837 0 16 1.791 16 4z"/>
  <path id="path2555" style="stroke-linejoin:round;stroke:url(#linearGradient2499);stroke-linecap:round;stroke-width:1.0037;fill:url(#radialGradient2497)" d="m16 1.5018c-7.9996 0-14.498 6.4986-14.498 14.498-0.0002 8 6.4984 14.498 14.498 14.498 8 0 14.498-6.498 14.498-14.498 0-7.9996-6.498-14.498-14.498-14.498z"/>
  <path id="path8655" style="opacity:.4;stroke:url(#linearGradient2494);fill:none" d="m29.5 16c0 7.456-6.045 13.5-13.5 13.5-7.4557 0-13.5-6.044-13.5-13.5 0-7.4562 6.0443-13.5 13.5-13.5 7.455 0 13.5 6.0438 13.5 13.5z"/>
  <path id="path2520" style="fill:#1f4b6b" d="m18.3 8.1756c0 1.201-0.984 2.1754-2.196 2.1754s-2.196-0.9744-2.196-2.1754c0-1.2009 0.984-2.1756 2.196-2.1756s2.196 0.9747 2.196 2.1756zm5.48 2.3134c-0.101 0.016-0.197 0.056-0.279 0.116l-7.501 1.159-7.4607-1.175c-0.1929-0.139-0.464-0.18-0.6795-0.077s-0.3568 0.346-0.3598 0.578c-0.0027 0.233 0.147 0.433 0.3598 0.541l5.8462 1.837-0.04 4.218-2.063 6.318c-0.199 0.287-0.138 0.657 0.16 0.848 0.298 0.192 0.721 0.134 0.919-0.154l3.329-6.819 3.266 6.807c0.177 0.299 0.571 0.402 0.88 0.232 0.309-0.171 0.416-0.551 0.24-0.849l-2.025-6.345-0.08-3.971 5.928-2.145c0.24-0.162 0.344-0.469 0.24-0.733s-0.389-0.418-0.68-0.386z"/>
  <path id="path6668" style="fill:#fff" d="m18.3 9.1756c0 1.2014-0.984 2.1754-2.196 2.1754s-2.196-0.974-2.196-2.1754c0-1.2009 0.984-2.1756 2.196-2.1756s2.196 0.9747 2.196 2.1756zm5.48 2.3134c-0.101 0.016-0.197 0.056-0.279 0.116l-7.501 1.159-7.4607-1.175c-0.1929-0.139-0.464-0.18-0.6795-0.077s-0.3568 0.346-0.3598 0.578c-0.0027 0.233 0.147 0.433 0.3598 0.541l5.8462 1.837-0.04 4.218-2.063 6.318c-0.199 0.287-0.138 0.657 0.16 0.848 0.298 0.192 0.721 0.134 0.919-0.154l3.329-6.819 3.266 6.807c0.177 0.299 0.571 0.402 0.88 0.232 0.309-0.171 0.416-0.551 0.24-0.849l-2.025-6.345-0.08-3.971 5.928-2.145c0.24-0.162 0.344-0.469 0.24-0.733s-0.389-0.418-0.68-0.386z"/>
 </g>
</svg>
